X: 215
T: The Village Maid
%R: march, reel
B: "Twenty Four Country Dances for the Year 1793", Preston & Son, eds. p.88
F: http://www.vwml.org/browse/browse-collections-dance-tune-books/browse-prestons1793# 2014-8-7
Z: 2014 John Chambers <jc:trillian.mit.edu>
N: The D.C. notation is on the staff, after the double bar line.
M: 2/4
L: 1/16
K: F
|:\
FEFG F2A2 | G2F2 F4 |\
AGAB A2c2 | B2A2 A4 |\
c2ed c2ge | c2af c2b2 |\
a2g2f2e2 | {e}f4- f4 :|
%
a2f2 d2(ef) | g2e2 c2(de) |\
f2d2c2=B2 | c=Bcd c2c2 |\
a2f2 d2(ef) | g2e2 c2(de) |\
f2d2c2=B2 | c4 c4 |]"D.C."
%
(c3d/c/) B2A2 | c2c2B2A2 |\
(d3e/d/) c2B2 |\
d2d2c2B2 | (c3d/c/) B2A2 |\
c2c2B2A2 | B2G2F2E2 | F4 F4 |]
%
C2(c=B) c2_B2 | A2f2e2f2 |\
C2(c=B) c2_B2 | A2f2e2f2 |\
d2b2b2b2 | c2a2a2a2 |\
gagf efed | cdcB ABAG |
%
(c3d/c/) B2A2 | c2c2B2A2 |\
(d3e/d/) c2B2 | d2d2c2B2 |\
(c3d/c/) B2A2 | c2c2B2A2 |\
B2G2F2E2 | F4 F4 |]
% = = = = = = = = = = = = = = = = = = = = = = = = =
%%begintext align
%% The 1st Cu: set to the 2d Lady & hands three
%% round .| Sett to the 2d Gent.n and hands 3
%% round :| Lead down the middle up again &
%% cast off :|. Allemand with your Part.r :|: Lead thro' the bottom
%% come up one Cu: .|| Le Poussette with the top Cu: :|| Hands 4
%% at bottom :||. .
%%endtext
% = = = = = = = = = = = = = = = = = = = = = = = = =

%%sep 1 1 500
%%sep 1 1 500
